src/static/logos/storybook-icon.svg

<?xml version="1.0" encoding="UTF-8"?>
<svg width="256px" height="319px" viewBox="0 0 256 319" version="1.1" xmlns="http://www.w3.org/2000/svg" xmlns:xlink="http://www.w3.org/1999/xlink" preserveAspectRatio="xMidYMid">
    <defs>
        <path d="M9.87245893,293.324145 L0.0114611411,30.5732167 C-0.314208957,21.8955842 6.33948896,14.5413918 15.0063196,13.9997149 L238.494389,0.0317105427 C247.316188,-0.519651867 254.914637,6.18486163 255.466,15.0066607 C255.486773,15.339032 255.497167,15.6719708 255.497167,16.0049907 L255.497167,302.318596 C255.497167,311.157608 248.331732,318.323043 239.492719,318.323043 C239.253266,318.323043 239.013844,318.317669 238.774632,318.306926 L25.1475605,308.712253 C16.8276309,308.338578 10.1847994,301.646603 9.87245893,293.324145 L9.87245893,293.324145 Z" id="path-1"></path>
    </defs>
		<g>
				<mask id="mask-2" fill="white">
						<use xlink:href="#path-1"></use>
				</mask>
				<use fill="#FF4785" fill-rule="nonzero" xlink:href="#path-1"></use>
				<path d="M188.665358,39.126973 L190.191903,2.41148534 L220.883535,0 L222.205755,37.8634126 C222.251771,39.1811466 221.22084,40.2866846 219.903106,40.3327009 C219.338869,40.3524045 218.785907,40.1715096 218.342409,39.8221376 L206.506729,30.4984116 L192.493574,41.1282444 C191.443077,41.9251106 189.945493,41.7195021 189.148627,40.6690048 C188.813185,40.2267976 188.6423,39.6815326 188.665358,39.126973 Z M149.413703,119.980309 C149.413703,126.206975 191.355678,123.222696 196.986019,118.848893 C196.986019,76.4467826 174.234041,54.1651411 132.57133,54.1651411 C90.9086182,54.1651411 67.5656805,76.7934542 67.5656805,110.735941 C67.5656805,169.85244 147.345341,170.983856 147.345341,203.229219 C147.345341,212.280549 142.913138,217.654777 133.162291,217.654777 C120.456641,217.654777 115.433477,211.165914 116.024438,189.103298 C116.024438,184.317101 67.5656805,182.824962 66.0882793,189.103298 C62.3262146,242.56887 95.6363019,257.990394 133.753251,257.990394 C170.688279,257.990394 199.645341,238.303123 199.645341,202.663511 C199.645341,139.304202 118.683759,141.001326 118.683759,109.604526 C118.683759,96.8760922 128.139127,95.178968 133.753251,95.178968 C139.662855,95.178968 150.300143,96.2205679 149.413703,119.980309 Z" fill="#FFFFFF" fill-rule="nonzero" mask="url(#mask-2)"></path>
		</g>
</svg>

<svg width="256" height="319" xmlns="http://www.w3.org/2000/svg" xmlns:xlink="http://www.w3.org/1999/xlink" preserveAspectRatio="xMidYMid"><defs><path d="M9.872 293.324L.012 30.574C-.315 21.895 6.338 14.54 15.005 14L238.494.032c8.822-.552 16.42 6.153 16.972 14.975.02.332.031.665.031.998v286.314c0 8.839-7.165 16.004-16.004 16.004-.24 0-.48-.005-.718-.016l-213.627-9.595c-8.32-.373-14.963-7.065-15.276-15.388z" id="a"/></defs><mask id="b" fill="#fff"><use xlink:href="#a"/></mask><use fill="#FF4785" xlink:href="#a"/><path d="M188.665 39.127l1.527-36.716L220.884 0l1.322 37.863a2.387 2.387 0 01-3.864 1.96l-11.835-9.325-14.013 10.63a2.387 2.387 0 01-3.829-2.001zm-39.251 80.853c0 6.227 41.942 3.243 47.572-1.131 0-42.402-22.752-64.684-64.415-64.684-41.662 0-65.005 22.628-65.005 56.57 0 59.117 79.78 60.249 79.78 92.494 0 9.052-4.433 14.426-14.184 14.426-12.705 0-17.729-6.49-17.138-28.552 0-4.786-48.458-6.278-49.936 0-3.762 53.466 29.548 68.887 67.665 68.887 36.935 0 65.892-19.687 65.892-55.326 0-63.36-80.961-61.663-80.961-93.06 0-12.728 9.455-14.425 15.07-14.425 5.909 0 16.546 1.042 15.66 24.801z" fill="#FFF" mask="url(#b)"/></svg>
